!!!COM: Palestrina, Giovanni Perluigi da
!!!OPR: Missa Repleatur os meum laude
!!!OTL: Agnus I
**kern	**kern	**kern	**kern	**kern
*Ibass	*Itenor	*Itenor	*Icalto	*Icant
!Bassus	!Tenor 2	!Tenor 1	!Altus	!Cantus
*clefF4	*clefGv2	*clefGv2	*clefG2	*clefG2
*k[]	*k[]	*k[]	*k[]	*k[]
*E:phr	*E:phr	*E:phr	*E:phr	*E:phr
*M4/2	*M4/2	*M4/2	*M4/2	*M4/2
=1	=1	=1	=1	=1
0r	1r	1E	0r	0e
.	[1E	[1G	.	.
=2	=2	=2	=2	=2
1r	1E]	2G]	0r	1.g
.	.	2A	.	.
[1E	[1G	2B	.	.
.	.	2c	.	2a
=3	=3	=3	=3	=3
1E]	0G]	1B	0B	2.b
.	.	.	.	4a
1G	.	1r	.	4b
.	.	.	.	4cc
.	.	.	.	[2b
=4	=4	=4	=4	=4
1F	1A	0r	1d	4b]
.	.	.	.	4a
.	.	.	.	1a
1E	1B	.	[1e	.
.	.	.	.	2g#
=5	=5	=5	=5	=5
1AA	1c	1r	2e]	1a
.	.	.	2f#	.
[1E	[1B	2r	2.g	1b
.	.	2E	.	.
.	.	.	4f	.
=6	=6	=6	=6	=6
1E]	1B]	1G	4e	2r
.	.	.	4d	.
.	.	.	1e	2g
1r	1r	1F	.	1a
.	.	.	2d	.
=7	=7	=7	=7	=7
0AA	0r	1E	0e	2.cc
.	.	.	.	4b
.	.	[1A	.	2a
.	.	.	.	4g
.	.	.	.	4f
=8	=8	=8	=8	=8
1C	0r	2A]	0r	2e
.	.	2A	.	2c
1BB	.	2B	.	1d
.	.	2G	.	.
=9	=9	=9	=9	=9
1AA	0r	2.c	0A	1e
.	.	4B	.	.
1D	.	4A	.	1f
.	.	4G	.	.
.	.	2F	.	.
=10	=10	=10	=10	=10
2C	0r	2G	1c	[0e
2AA	.	1A	.	.
1E	.	.	1B	.
.	.	2G#	.	.
=11	=11	=11	=11	=11
1AA	1E	2A	1A	1e]
.	.	1c	.	.
[1GG	[1G	.	[1d	1r
.	.	4B	.	.
.	.	4A	.	.
=12	=12	=12	=12	=12
1GG]	1G]	1B	2d]	1r
.	.	.	2e	.
2.D	[1F	[1A	2.f	[1a
4E	.	.	8e	.
.	.	.	8d	.
=13	=13	=13	=13	=13
4F	1F]	1A]	2.c	1a]
4G	.	.	.	.
1A	.	.	.	.
.	.	.	4d	.
.	[1E	1r	[1e	1cc
4G	.	.	.	.
4F#	.	.	.	.
=14	=14	=14	=14	=14
1G#	1E]	0r	1e]	1b
2.A	[1A	.	1c	2a
.	.	.	.	2e
4G	.	.	.	.
=15	=15	=15	=15	=15
4F	0A]	0r	2.d	1f
4E	.	.	.	.
1D	.	.	.	.
.	.	.	4e	.
.	.	.	2f	2d
2C#	.	.	2e	2e
=16	=16	=16	=16	=16
1D	1A	1r	0d	2f#
.	.	.	.	2f#
1GG	1B	2r	.	2.g
.	.	2D	.	.
.	.	.	.	4f
=17	=17	=17	=17	=17
2.C	1G	2E	1c	1e
.	.	1G	.	.
4BB	.	.	.	.
1AA	[1c	.	2r	1a
.	.	2F#	2A	.
=18	=18	=18	=18	=18
1GG	2c]	1G	2B	2.d
.	2B	.	1d	.
.	.	.	.	4e
1r	2A	2F	.	2f
.	2G	2E	2c#	4g
.	.	.	.	4a
=19	=19	=19	=19	=19
2r	1F	2D	2d	2b-
2D	.	2d	2f	2a
2E	1G	2c	2e	2r
[2G	.	2B	2d	[2d
=20	=20	=20	=20	=20
2G]	0A	2A	2r	4d]
.	.	.	.	4e
2F	.	2D	2d	4f
.	.	.	.	4g
2D	.	2r	1d	2a
2F	.	2D	.	2f
=21	=21	=21	=21	=21
1E	1G	2E	2c	1g
.	.	1G	2B	.
1D	1A	.	1d	2r
.	.	2F	.	2d
=22	=22	=22	=22	=22
2.C	0c	1E	1G	2e
.	.	.	.	2g
4BB	.	.	.	.
1AA	.	1A	2r	2f
.	.	.	2c	4e
.	.	.	.	4f
=23	=23	=23	=23	=23
0r	2B	2G	1d	4g
.	.	.	.	8f
.	.	.	.	8g
.	2A	2F	.	1a
.	[1B	[1E	[1e	.
.	.	.	.	4g
.	.	.	.	4f#
=24	=24	=24	=24	=24
2r	1B]	1E]	1e]	1g#
2E	.	.	.	.
2F	[1A	2r	2.c	2a
[2A	.	2A	.	[2cc
.	.	.	4d	.
=25	=25	=25	=25	=25
4A]	1A_	2c	2e	4cc]
4G	.	.	.	4b
4F	.	1d	1f	4a
4E	.	.	.	4g
2D	1A_	.	.	1a
2C#	.	[2e	2e	.
=26	=26	=26	=26	=26
1D	1A]	4e]	1f	0a
.	.	4d	.	.
.	.	1d	.	.
1A	1r	.	2e	.
.	.	2c#	2A	.
=27	=27	=27	=27	=27
2.G	0r	4d	2B	2r
.	.	4c	.	.
.	.	4B	1d	2d
4F	.	4A	.	.
1E	.	1G	.	2e
.	.	.	2c#	[2g
=28	=28	=28	=28	=28
1D	0r	1A	1d	2g]
.	.	.	.	2f#
4C	.	1c	2e	2.g
4D	.	.	.	.
4E	.	.	[2g	.
4F	.	.	.	4a
=29	=29	=29	=29	=29
2G	0r	2r	4g]	2b
.	.	.	4f	.
2C	.	2G	4e	2.cc
.	.	.	4d	.
1F	.	2A	2.c	.
.	.	.	.	4b
.	.	[2c	.	[2a
.	.	.	4d	.
=30	=30	=30	=30	=30
1E	0r	2c]	0e	2a]
.	.	2B	.	2g#
2AA	.	2.c	.	1a
[2A	.	.	.	.
.	.	4d	.	.
=31	=31	=31	=31	=31
4A]	0r	2e	1A	2r
4G	.	.	.	.
2F	.	1d	.	2d
1E	.	.	1r	2e
.	.	2c#	.	[2g
=32	=32	=32	=32	=32
1D	0r	1d	2r	2g]
.	.	.	2d	2f#
1r	.	2c	2e	1g
.	.	2B	[2g	.
=33	=33	=33	=33	=33
1r	1D	2A	2g]	1a
.	.	2d	2f#	.
2r	1E	2B	2.g	2g
[2C	.	[2c	.	[2e
.	.	.	4f	.
=34	=34	=34	=34	=34
2C]	0G	2c]	2e	4e]
.	.	.	.	4f
2BB	.	2d	2d	2.g
2C	.	2e	2r	.
.	.	.	.	4a
2BB	.	2d	2G	2b
=35	=35	=35	=35	=35
1AA	1F#	2r	2A	2cc
.	.	2A	2c	2a
2.GG	[1G	2B	2.B	4dd
.	.	.	.	4cc
.	.	[2d	.	4b
4AA	.	.	4c	4a
=36	=36	=36	=36	=36
2BB	1G]	2d]	2d	1g
2C	.	4c	2e	.
.	.	4B	.	.
1D	1F	1A	4f	2r
.	.	.	4e	.
.	.	.	[2d	2d
=37	=37	=37	=37	=37
1r	1E	1G	2d]	2e
.	.	.	2c#	2g
2r	1D	1A	2.d	2.f#
[2D	.	.	.	.
.	.	.	4e	4g
=38	=38	=38	=38	=38
2D]	1d	1D	2f#	2a
2GG	.	.	2g	2b
2.C	1c	1E	1e	4cc
.	.	.	.	4b
.	.	.	.	[2a
4D	.	.	.	.
=39	=39	=39	=39	=39
1E	1B	2r	1.e	2a]
.	.	2B	.	2g#
2AA	[1A	2c	.	[1a
2A	.	[2e	2c	.
=40	=40	=40	=40	=40
2F	0A]	4e]	1.f	1a]
.	.	4d	.	.
4D	.	1d	.	.
4E	.	.	.	.
4F	.	.	.	2r
4G	.	.	.	.
2A	.	2c#	2e	2e
=41	=41	=41	=41	=41
2D	[0A	2d	2r	2f
2.F	.	2D	2d	2.a
.	.	2.F	2c	.
4E	.	.	.	4g
[2D	.	.	[2f	4f
.	.	4G	.	4e
=42	=42	=42	=42	=42
2D]	0A]	2.A	2f]	2d
2C#	.	.	2e	2e
.	.	4G	.	.
1D	.	2F	1d	1f
.	.	2D	.	.
=43	=43	=43	=43	=43
0AA	[0A	[0E	0c#	0e
=44	=44	=44	=44	=44
0AA	0A]	0E]	0c#	0e
==	==	==	==	==
*-	*-	*-	*-	*-
!!!CDT: 1525/^1526/-1594/2/2
!!!OCY: Italia
!!!AGN: Mass (Canonic)
!!!AST: renaissance, vocal
!!!ASW: Motet 1538 (Jacquet)
!!!PWK: Masses, Book 3
!!!RNB: Cadence finals: A,G,C
!!!YOR: Le Opere Complete, v. 6, p. 136
!!!YOO: Rome, Italy: Fratelli Scalera
!!!END: 1992//
!!!EED: John Miller
!!!YEC: Copyright 2000, John Miller
!!!YEN: United States of America
!!!YEM: Rights to all derivative electronic formats reserved.
!!!YEM: Refer to licensing agreement for further details.
!!!YEM: This file must be accompanied by the licensing agreement.
!!!YEM: A copy of the licensing agreement may be found at http://www.music-cog.ohio-state.edu/HumdrumDatabases/Palestrina/license.txt
!!!EMD: converted to Humdrum by Bret Aarden
